X: 42210
T: Waves Of Kilkee, The
R: waltz
M: 3/4
K: Gmajor
GA|B4 ed|d2 D2 BA|G6|g4 f2|e2 f2 g2|d B-B2 AG|A6-|A2 z2 GA|
B4 ed|d4 BA|G6|e2 f2 g2|d B3 BG|A4 GF|G6-|G2 z2 GA|
"G" B4 ed|"D" d4 BA|"Em" G6|"D" g4 f2|"C" e2 f2 g2|"G" dB-B2 AG|"D" A6 -|A2 z2 GA|
"G" B4 ed|"D" d4 BA|"Em" G6|"C" e2f2g2|"G" d B3 BG|"D" A4 GF|"G" G6 -|G2 z2 gf|
"Em" g4 gf|"Em" g4 b2|"C" e4 e2|"G" d4 d/e/f|"Em" g2 B4|"G" B2 A2 G2|"D" A6 -|A2 z2 gf|
"Em" g4 gf|"Em" g4 b2|"C" e4 f2|"G" g2 g2 e2|"Em" B4 AG|"D" A4 G2|"G" G6 -|G2 z2 GA|
"G" B4 ed|"D" d4 BA|"Em" G6|"D" g4 f2|"C" e2 f2 g2|"G" dB-B2 AG|"D" A6 -|A2 z2 GA|
"G" B4 ed|"D" d4 BA|"Em" G6|"C" e2f2g2|"G" d B3 BG|"D" A4 GF|"G" G6 -|G2 z2 GA|
"G" B3 d gb|"D" d'3c' ba|"Em" g6|g4 f2|"C" e2 f2 g2|"G" dB-B2 AG|"D" A6 -|A2 z2 GA|
"G" B3 d gb|"D" d'3 e' d'c'|"Em" b g4-g|"C" e2 f2 g2|"G" dB-B2 AG|"D" A4 GF|"G" G6 -|G2 z2 GF|
"Em" G4 gf|"Em" g4 b2|"C" e4 e2|"G" d4 d/e/f|"Em" g2 B4|"G" B2 A2 G2|"D" A6 -|A2 z2 gf|
"Em" g4 gf|"Em" g4 b2|"C" e4 f2|"G" g2 g2 e2|"Em" B4 AG|"D" A4 G2|"G" G6 -|G2 z4|z2 g2 f2|
dB- B2 AG|A4 F2-|F2 G4||

